Catalina-dark/actions/16/kdenlive-split-audio.svg

<?xml version="1.0" encoding="UTF-8" standalone="no"?>
<svg
   xmlns:dc="http://purl.org/dc/elements/1.1/"
   xmlns:cc="http://creativecommons.org/ns#"
   xmlns:rdf="http://www.w3.org/1999/02/22-rdf-syntax-ns#"
   xmlns:svg="http://www.w3.org/2000/svg"
   xmlns="http://www.w3.org/2000/svg"
   xmlns:sodipodi="http://sodipodi.sourceforge.net/DTD/sodipodi-0.dtd"
   xmlns:inkscape="http://www.inkscape.org/namespaces/inkscape"
   width="16"
   height="16"
   viewBox="0 0 16 16"
   version="1.1"
   id="svg7"
   sodipodi:docname="kdenlive-split-audio.svg"
   inkscape:version="0.92.4 5da689c313, 2019-01-14">
  <metadata
     id="metadata11">
    <rdf:RDF>
      <cc:Work
         rdf:about="">
        <dc:format>image/svg+xml</dc:format>
        <dc:type
           rdf:resource="http://purl.org/dc/dcmitype/StillImage" />
      </cc:Work>
    </rdf:RDF>
  </metadata>
  <sodipodi:namedview
     pagecolor="#ffffff"
     bordercolor="#666666"
     borderopacity="1"
     objecttolerance="10"
     gridtolerance="10"
     guidetolerance="10"
     inkscape:pageopacity="0"
     inkscape:pageshadow="2"
     inkscape:window-width="640"
     inkscape:window-height="480"
     id="namedview9"
     showgrid="false"
     inkscape:zoom="14.75"
     inkscape:cx="6.8135593"
     inkscape:cy="8"
     inkscape:window-x="0"
     inkscape:window-y="26"
     inkscape:window-maximized="0"
     inkscape:current-layer="svg7" />
  <defs
     id="defs3">
    <style
       id="current-color-scheme"
       type="text/css">
   .ColorScheme-Text { color:#5c616c; } .ColorScheme-Highlight { color:#5294e2; }
  </style>
  </defs>
  <path
     style="fill:#f1f6f8;fill-opacity:0.8509804"
     class="ColorScheme-Text"
     d="M 13.179688 0 C 13.089288 0.000895 13.03125 0.03125 13.03125 0.03125 L 1.7792969 2.1054688 C 0.84132687 2.2800287 1.0058594 3.2675781 1.0058594 3.2675781 L 1.4570312 6 L 4.4023438 6 L 5.4746094 4.0527344 L 7.796875 6 L 9.9980469 6 L 10.861328 4.7753906 L 12.529297 6 L 14.998047 6 L 14.134766 0.84960938 C 14.010726 0.10714938 13.455144 -0.000726875 13.183594 0.001953125 L 13.179688 0 z M 1 7 L 1 8 L 2 8 L 2 7 L 1 7 z M 3 7 L 3 8 L 4 8 L 4 7 L 3 7 z M 5 7 L 5 8 L 6 8 L 6 7 L 5 7 z M 7 7 L 7 8 L 8 8 L 8 7 L 7 7 z M 9 7 L 9 8 L 10 8 L 10 7 L 9 7 z M 11 7 L 11 8 L 12 8 L 12 7 L 11 7 z M 13 7 L 13 8 L 14 8 L 14 7 L 13 7 z M 15 7 L 15 8 L 16 8 L 16 7 L 15 7 z M 1.0019531 9 L 1.0019531 11.908203 L 3.8183594 11.908203 L 7.9101562 16 L 7.9101562 9 L 1.0019531 9 z M 9.9101562 9 L 9.9101562 12 C 10.980156 11.42 11.699219 10.3 11.699219 9 L 9.9101562 9 z M 13.910156 9 C 13.910156 11.57 12.230156 13.76 9.9101562 14.5 L 9.9101562 16 C 13.060156 15.22 15.410156 12.4 15.410156 9 L 13.910156 9 z"
     id="path5" />
</svg>

<svg width="16" height="16" version="1.1" viewBox="0 0 16 16" xmlns="http://www.w3.org/2000/svg">
<defs>
<style id="current-color-scheme" type="text/css">.ColorScheme-Text { color:#5c616c; } .ColorScheme-Highlight { color:#5294e2; }</style>
</defs>
<path class="ColorScheme-Text" d="m13.18 0c-0.0904 8.95e-4 -0.14844 0.03125-0.14844 0.03125l-11.252 2.0742c-0.93797 0.17456-0.77344 1.1621-0.77344 1.1621l0.45117 2.7324h2.9453l1.0723-1.9473 2.3223 1.9473h2.2012l0.86328-1.2246 1.668 1.2246h2.4688l-0.86328-5.1504c-0.12404-0.74246-0.67962-0.85034-0.95117-0.84766l-0.003906-0.0019531zm-12.18 7v1h1v-1h-1zm2 0v1h1v-1h-1zm2 0v1h1v-1h-1zm2 0v1h1v-1h-1zm2 0v1h1v-1h-1zm2 0v1h1v-1h-1zm2 0v1h1v-1h-1zm2 0v1h1v-1h-1zm-13.998 2v2.9082h2.8164l4.0918 4.0918v-7h-6.9082zm8.9082 0v3c1.07-0.58 1.7891-1.7 1.7891-3h-1.7891zm4 0c0 2.57-1.68 4.76-4 5.5v1.5c3.15-0.78 5.5-3.6 5.5-7h-1.5z" fill="#dedede" fill-opacity=".85098"/>
</svg>
